apps/scalable/simplenote.svg

<svg xmlns="http://www.w3.org/2000/svg" style="isolation:isolate" width="256" height="256"><defs><filter id="a" width="270.648" height="254.338" x="-7.32" y="2.95" filterUnits="userSpaceOnUse"><feGaussianBlur xmlns="http://www.w3.org/2000/svg" in="SourceGraphic" stdDeviation="4.294"/><feOffset xmlns="http://www.w3.org/2000/svg" dy="4" result="pf_100_offsetBlur"/><feFlood xmlns="http://www.w3.org/2000/svg" flood-opacity=".4"/><feComposite xmlns="http://www.w3.org/2000/svg" in2="pf_100_offsetBlur" operator="in" result="pf_100_dropShadow"/><feBlend xmlns="http://www.w3.org/2000/svg" in="SourceGraphic" in2="pf_100_dropShadow"/></filter></defs><g filter="url(#a)"><linearGradient id="b" x1=".233" x2=".933" y1="-.071" y2=".995" gradientTransform="matrix(244.648 0 0 228.338 5.676 11.947)" gradientUnits="userSpaceOnUse"><stop offset="0%" stop-color="#e8e8e8"/><stop offset="100%" stop-color="#f5f5f5"/></linearGradient><path fill="url(#b)" d="M165.685 11.947c74.055 0 84.639 10.557 84.639 84.544v59.251c0 73.986-10.584 84.543-84.639 84.543h-75.37c-74.055 0-84.639-10.557-84.639-84.543V96.491c0-73.987 10.584-84.544 84.639-84.544h75.37z"/></g><g opacity=".4"><linearGradient id="c" x1=".517" x2=".517" y2="1"><stop offset="0%" stop-color="#fff"/><stop offset="12.5%" stop-opacity=".098" stop-color="#fff"/><stop offset="92.5%" stop-opacity=".098"/><stop offset="100%" stop-opacity=".498"/></linearGradient><path fill="none" stroke="url(#c)" stroke-linecap="round" stroke-linejoin="round" stroke-width="4.077" d="M165.685 11.947c74.055 0 84.639 10.557 84.639 84.544v59.251c0 73.986-10.584 84.543-84.639 84.543h-75.37c-74.055 0-84.639-10.557-84.639-84.543V96.491c0-73.987 10.584-84.544 84.639-84.544h75.37z" vector-effect="non-scaling-stroke"/></g><g fill="#2B8AE2"><path d="M88.053 53.185C61.531 68.12 45.544 95.088 45.5 125.244c.056 41.538 31.371 77.865 72.948 84.071 2.981.311 3.884.173 6.079 0 20.144 0 36.474-16.131 36.474-36.03-.018-13.657-7.806-25.852-19.662-31.931 0 0-13.096-5.929-18.89-9.001-8.393-4.146-15.157-7.814-23.954-13.125-4.398-2.655-8.842-5.755-12.834-10.544-3.992-4.789-7.29-11.964-7.29-19.469 0-14.562 2.853-25.66 9.683-36.03h-.001z"/><path d="M167.946 200.816c26.524-14.937 42.513-41.901 42.554-72.061-.058-41.537-31.367-77.863-72.947-84.07-2.981-.311-3.884-.173-6.079 0C111.33 44.685 95 60.816 95 80.715c.018 13.657 7.806 25.852 19.661 31.931 0 0 13.097 5.929 18.891 9.001 8.393 4.146 15.568 7.814 24.365 13.125 4.399 2.655 8.843 5.755 12.835 10.544 3.992 4.789 7.29 11.964 7.29 19.469 0 14.562-3.266 25.66-10.095 36.03l-.001.001z"/></g></svg>

<svg xmlns="http://www.w3.org/2000/svg" style="isolation:isolate" width="256" height="256" viewBox="0 0 256 256">
 <defs>
  <filter id="im6suv9LIEwsY33jXJJmnaLqLp7IsThf" width="270.648" height="254.338" x="-7.32" y="2.95" filterUnits="userSpaceOnUse">
   <feGaussianBlur xmlns="http://www.w3.org/2000/svg" in="SourceGraphic" stdDeviation="4.294"/>
   <feOffset xmlns="http://www.w3.org/2000/svg" dx="0" dy="4" result="pf_100_offsetBlur"/>
   <feFlood xmlns="http://www.w3.org/2000/svg" flood-opacity=".4"/>
   <feComposite xmlns="http://www.w3.org/2000/svg" in2="pf_100_offsetBlur" operator="in" result="pf_100_dropShadow"/>
   <feBlend xmlns="http://www.w3.org/2000/svg" in="SourceGraphic" in2="pf_100_dropShadow" mode="normal"/>
  </filter>
 </defs>
 <g filter="url(#im6suv9LIEwsY33jXJJmnaLqLp7IsThf)">
  <linearGradient id="_lgradient_82" x1=".233" x2=".933" y1="-.071" y2=".995" gradientTransform="matrix(244.648,0,0,228.338,5.676,11.947)" gradientUnits="userSpaceOnUse">
   <stop offset="0%" style="stop-color:rgb(232,232,232)"/>
   <stop offset="100%" style="stop-color:rgb(245,245,245)"/>
  </linearGradient>
  <path fill="url(#_lgradient_82)" d="M 165.685 11.947 C 239.74 11.947 250.324 22.504 250.324 96.491 L 250.324 155.742 C 250.324 229.728 239.74 240.285 165.685 240.285 L 90.315 240.285 C 16.26 240.285 5.676 229.728 5.676 155.742 L 5.676 96.491 C 5.676 22.504 16.26 11.947 90.315 11.947 L 165.685 11.947 Z"/>
 </g>
 <g opacity=".4">
  <linearGradient id="_lgradient_83" x1=".517" x2=".517" y1="0" y2="1">
   <stop offset="0%" style="stop-color:rgb(255,255,255)"/>
   <stop offset="12.5%" stop-opacity=".098" style="stop-color:rgb(255,255,255)"/>
   <stop offset="92.5%" stop-opacity=".098" style="stop-color:rgb(0,0,0)"/>
   <stop offset="100%" stop-opacity=".498" style="stop-color:rgb(0,0,0)"/>
  </linearGradient>
  <path fill="none" stroke="url(#_lgradient_83)" stroke-linecap="round" stroke-linejoin="round" stroke-width="4.077" d="M 165.685 11.947 C 239.74 11.947 250.324 22.504 250.324 96.491 L 250.324 155.742 C 250.324 229.728 239.74 240.285 165.685 240.285 L 90.315 240.285 C 16.26 240.285 5.676 229.728 5.676 155.742 L 5.676 96.491 C 5.676 22.504 16.26 11.947 90.315 11.947 L 165.685 11.947 Z" vector-effect="non-scaling-stroke"/>
 </g>
 <g>
  <path fill="#2B8AE2" d="M 88.053 53.185 C 61.531 68.12 45.544 95.088 45.5 125.244 C 45.556 166.782 76.871 203.109 118.448 209.315 C 121.429 209.626 122.332 209.488 124.527 209.315 C 144.671 209.315 161.001 193.184 161.001 173.285 C 160.983 159.628 153.195 147.433 141.339 141.354 C 141.339 141.354 128.243 135.425 122.449 132.353 C 114.056 128.207 107.292 124.539 98.495 119.228 C 94.097 116.573 89.653 113.473 85.661 108.684 C 81.669 103.895 78.371 96.72 78.371 89.215 C 78.371 74.653 81.224 63.555 88.054 53.185 L 88.053 53.185 Z"/>
  <path fill="#2B8AE2" d="M 167.946 200.816 C 194.47 185.879 210.459 158.915 210.5 128.755 C 210.442 87.218 179.133 50.892 137.553 44.685 C 134.572 44.374 133.669 44.512 131.474 44.685 C 111.33 44.685 95 60.816 95 80.715 C 95.018 94.372 102.806 106.567 114.661 112.646 C 114.661 112.646 127.758 118.575 133.552 121.647 C 141.945 125.793 149.12 129.461 157.917 134.772 C 162.316 137.427 166.76 140.527 170.752 145.316 C 174.744 150.105 178.042 157.28 178.042 164.785 C 178.042 179.347 174.776 190.445 167.947 200.815 L 167.946 200.816 Z"/>
 </g>
</svg>
